X:11495
T:Mueira d'Ancandeira II (MG 54)
T:Mulieira d'Ancandeira II (MG 54)
R:Mueira
C:Versin d'Antn de Fundaveiga
S:Msica Tradicional Asturiana, (C) Tello & Tito. Asturies, 2001.
S:http://pagina.de/MusTradAst <telloytito@asturies.org>
O:Ancandeira
A:Asturies
Z:Mtodu de Gaita 54
E:Comp.
M:6/8
L:1/8
Q:3/8=88
K:C
G|:c2c d2c|BAG2EF|G2G B2A|GFE G3|
G2F A2G|FED DEF|GAG FED|[1 G4GG:|[2 C3 CDE|
|:F4GF|EDC2EE|EDC B,DD|DC2 CDE|
F3 AGF|EDC2EE|EDC B,DD|[1 C3 CDE:|[2 C4CG|
|:A2G DEF|G2E CEE|F2D B,DD|EDC3G|
A2G DEF|G2E CEE|F2D B,DD|[1 C4CG:|[2 C4||
